lib/assets/images/appbar_chat.svg

<svg width="40" height="40" viewBox="0 0 40 40" fill="none" xmlns="http://www.w3.org/2000/svg">
<path fill-rule="evenodd" clip-rule="evenodd" d="M30.3498 23.7344C30.0507 24.5632 30.0676 25.4941 30.5338 26.2418L32.5468 29.471C32.9621 30.1371 32.4831 31 31.6982 31H20C13.9248 31 9 26.0751 9 20C9 13.9248 13.9248 9 20 9C26.0751 9 30.9999 13.9248 30.9999 20C30.9999 21.311 30.7706 22.5685 30.3498 23.7344ZM15.5663 21.2682C14.7831 21.1015 14.0926 21.8191 14.4964 22.5106C15.66 24.503 17.6901 25.9998 20 25.9998C22.3099 25.9998 24.34 24.503 25.5036 22.5106C25.9074 21.8191 25.2169 21.1015 24.4337 21.2682C21.5432 21.8832 18.4568 21.8832 15.5663 21.2682Z" fill="black"/>
</svg>

<svg width="40" height="40" fill="none" xmlns="http://www.w3.org/2000/svg"><path fill-rule="evenodd" clip-rule="evenodd" d="M30.35 23.734c-.3.83-.282 1.76.184 2.508l2.013 3.229A1 1 0 0 1 31.698 31H20c-6.075 0-11-4.925-11-11S13.925 9 20 9s11 4.925 11 11c0 1.311-.23 2.569-.65 3.734zm-14.784-2.466c-.783-.166-1.473.551-1.07 1.243C15.66 24.503 17.69 26 20 26c2.31 0 4.34-1.497 5.504-3.49.403-.69-.287-1.409-1.07-1.242a21.54 21.54 0 0 1-8.868 0z" fill="#000"/></svg>
